SVG/ico__clock.svg

<svg xmlns="http://www.w3.org/2000/svg" viewBox="0 0 240 240">
  <path d="M120,40c-44.18,0-80,35.82-80,80s35.82,80,80,80,80-35.82,80-80-35.82-80-80-80ZM120,180c-33.14,0-60-26.86-60-60s26.86-60,60-60,60,26.86,60,60-26.86,60-60,60Z"/>
  <polygon points="160 100 100 100 100 120 100 120 100 160 120 160 120 120 160 120 160 100"/>
</svg>

<svg width="240" height="240" viewBox="0 0 240 240" fill="none" xmlns="http://www.w3.org/2000/svg">
<path d="M120 40C75.82 40 40 75.82 40 120C40 164.18 75.82 200 120 200C164.18 200 200 164.18 200 120C200 75.82 164.18 40 120 40ZM120 180C86.86 180 60 153.14 60 120C60 86.86 86.86 60 120 60C153.14 60 180 86.86 180 120C180 153.14 153.14 180 120 180Z" fill="black"/>
<path d="M160 100H100V120V160H120V120H160V100Z" fill="black"/>
</svg>
